X: 126
T: Ayağına Giymiş Sedef Nalini
C: (Anonim)
O: Turkey
F: http://compmusic.upf.edu/node/140
N: evic--turku--aksak--ayagina_giymis--
N: makam= evic
N: form= turku
N: usul= aksak = 9/8
M: 9/8
L: 1/16
K: C _1/4B ^f ^c 
Q: 1/4=144
%%MIDI tuningsystem comma53
^efga fgef d=ecd BcAB AG | FG ABcd ^efg3/2f/ egf4z2  | 
w:  ARANAĞME  |   | 
^efga fgef d^1/4ecd BcAB AG | FG AB=c2 BAAG2FF4z2  | 
w:   |   | 
^efga fgef d=ecd BcAB AG | FG ABcd ^efg3/2f/ egf4z2  | 
w:  ARANAĞME  |   | 
^efga fgef d^1/4ecd BcAB AG | FG AB=c2 BAAG2FF3f^eg  | 
w:   |   | 
f4 f2g2 f2^ef g2fe d2 | cd ^e^3/4fg2 f^1/4eed2=fed c2e2  | 
w:  *  A ya ğı *  *  na   |  giy *  *  *  miş  *  *  se *  *  def   | 
d2cB zA2B c2Bc {c}d4 z2 | c2 Bcd2 cBAG FGAB .c2BA  | 
w:  *  *  *  na li ni  *  *  *  of    |  na *  *  *  li *  ni  *  *  *  *  *  *  a  | 
A4 ze2e {e}d2c2 {e}d2=c2 B2 | A2 {B}AB=c2 BAA3/2B/ AGF2 G2F^E  | 
w:  man   Aş ka  *  düş *  *  tüm   |  kim *  *  *  se  *  *  bil *  *  *  mez   | 
F4 zF2F F4 {e}d2=c2 B2 | A2 {=c}B{c}AAG GFF4fg f^ede  | 
w:  *  ha li mi  *  of    |  ha *  *  *  *  *  *  li *  mi   SAZ  | 
f4 f2{f}g2 f2^ef g2fe d2 | cd ^e^3/4fg2 f^1/4eed2=fed c2e2  | 
w:  *  E *  lim den  *  *  al  |  mak  *  *  *  is *  *  ter *  *  ler   | 
d2cB zA2B c2Bc {c}d4 z2 | c2 Bcd2 cBAG FGAB .c2BA  | 
w:  *  *  *  yâ ri mi   *  *  *  of    |  yâ *  *  *  ri *  mi  *  *  *  *  *  *  a  | 
A4 ze2e {e}d2c2 {e}d2=c2 B2 | A2 AB=c2 BAA3/2B/ AGF2 G2F^E  | 
w:  man   Yan dım_ *  in *  *  saf   |  ey *  *  le  *  *  za *  *  *  lim   | 
F4 zF2F F4 {e}d2=c2 B2 | A2 {=c}BAAG GFF4e=f ed^ce  | 
w:  *  el  a man  *  ha  |  lim  *  *  *  *  *  ya *  man   SAZ  | 
d2cB Ae2e {e}d2c2 {e}d2=c2 B2 | A2 AB=c2 BAA3/2B/ AGF2 G2F^E  | 
w:  *  *  *  *  Sön mez *  aş *  *  kın   |  â *  *  te *  *  şi  *  *  *  hiç  | 
F4 zF2F F4 {e}d2=c2 B2 | A3BAG GFF8z2  | \
w:  *  bir  za man  *  hiç  |  bir  *  *  *  za *  man    | 
^efga fgef d=ecd BcAB AG | 
w:  ARANAĞME  | 
FG ABcd ^efg3/2f/ egf4z2  | ^efga fgef d^1/4ecd BcAB AG | 
w:   |   | 
FG AB=c2 BAAG2FF4z2  | ^efga fgef d=ecd BcAB AG | 
w:   |  ARANAĞME  | 
FG ABcd ^efg3/2f/ egf4z2  | ^efga fgef d^1/4ecd BcAB AG | 
w:   |   | 
FG AB=c2 BAAG2FF3f^eg  | f4 f2g2 f2^ef g2fe d2 | 
w:   |  *  A ya ğı *  *  na   | 
cd ^e^3/4fg2 f^1/4eed2=fed c2e2  | \
w:  giy *  *  *  miş  *  *  se *  *  def   | 
d2cB zA2B c2Bc {c}d4 z2 | 
w:  *  *  *  na li ni  *  *  *  of    | 
c2 Bcd2 cBAG FGAB .c2BA  | A4 ze2e {e}d2c2 {e}d2=c2 B2 | 
w:  na *  *  *  li *  ni  *  *  *  *  *  *  a  |  man   Aş ka  *  düş *  *  tüm   | 
A2 {B}AB=c2 BAA3/2B/ AGF2 G2F^E  | \
w:  kim *  *  *  se  *  *  bil *  *  *  mez   | 
F4 zF2F F4 {e}d2=c2 B2 | 
w:  *  ha li mi  *  of    | 
A2 {=c}B{c}AAG GFF4fg f^ede  | f4 f2{f}g2 f2^ef g2fe d2 | 
w:  ha *  *  *  *  *  *  li *  mi   SAZ  |  *  E *  lim den  *  *  al  | 
cd ^e^3/4fg2 f^1/4eed2=fed c2e2  | \
w:  mak  *  *  *  is *  *  ter *  *  ler   | 
d2cB zA2B c2Bc {c}d4 z2 | 
w:  *  *  *  yâ ri mi   *  *  *  of    | 
c2 Bcd2 cBAG FGAB .c2BA  | A4 ze2e {e}d2c2 {e}d2=c2 B2 | 
w:  yâ *  *  *  ri *  mi  *  *  *  *  *  *  a  |  man   Yan dım_ *  in *  *  saf   | 
A2 AB=c2 BAA3/2B/ AGF2 G2F^E  | F4 zF2F F4 {e}d2=c2 B2 | 
w:  ey *  *  le  *  *  za *  *  *  lim   |  *  el  a man  *  ha  | 
A2 {=c}BAAG GFF4e=f ed^ce  | d2cB Ae2e {e}d2c2 {e}d2=c2 B2 | 
w:  lim  *  *  *  *  *  ya *  man   SAZ  |  *  *  *  *  Sön mez *  aş *  *  kın   | 
A2 AB=c2 BAA3/2B/ AGF2 G2F^E  | F4 zF2F F4 {e}d2=c2 B2 | 
w:  â *  *  te *  *  şi  *  *  *  hiç  |  *  bir  za man  *  hiç  | 
A3BAG GFF8z2  | |


